X: 60
T:Untitled. HA.059
M:3/4
L:1/8
Q:90
S:Henry Atkinson's original MS,Hartburn,N'umberland,1694.
O:England
A:Hartburn,Northumberland
H:1/8
Z:vmp.Chris Partington.Jan.2004
K:F
d^cdefg|e2e2a2|d2e2^c2|dcde"qu"d2|!
d^cdefg|e2e2a2|d2e2^c2|d4A2:|!
|:agab"qu"a2|f4c2|f2g2e2|fefgfg|!
agab"qu"a2|A4a2|g2e4|d6:|]
